X:583
T: NIX IN DER GRUBE
N: E1891
O: Europa, Mitteleuropa, Deutschland, Sachsen, Schlesien
R: Kinder - Lied, Spiel
M: 2/4
L: 1/8
K: C
 | G,2G,A, | G,2E,
E, | G,G,G,A, | G,2E,z |
G,G,G,A, | G,2E,
E, | G,G,G,A, | G,2D,z |
G,2G,2 | C4

@@@ Tune index: 5267
